src/Components/Assets/Img/FPPLogo.svg

<svg fill="none" height="49" viewBox="0 0 178 49" width="178" xmlns="http://www.w3.org/2000/svg" xmlns:xlink="http://www.w3.org/1999/xlink"><mask id="a" height="34" maskUnits="userSpaceOnUse" width="37" x="4" y="4"><path d="m4 37.5088v-33.5088h36.1818v33.5088z" fill="#fff"/></mask><path clip-rule="evenodd" d="m37.2177 21.39c-.068.083-.0313.1623.0859.1541 1.7446-.0956 3.3136-.1419 4.9424-.2759.2841-.0245.2948-.0975.2697-.3119-.0252-.2171-.0292-.4401-.0227-.6645-.2567-1.4087-.6518-2.7666-1.1786-4.0545-1.5896 1.5157-2.9932 3.1773-4.0967 5.1527z" fill="#0f0f0f" fill-rule="evenodd"/><path clip-rule="evenodd" d="m35.6382 23.8047c-2.9681 5.0431-6.1379 10.481-9.6172 14.1214-3.3525 3.5066-6.1972 4.6889-9.1283 4.9138 2.0394.7489 4.2341 1.1601 6.523 1.1601 10.7228 0 19.4157-8.9549 19.4157-20.0004 0-.3782-.0122-.7531-.0324-1.1261-.0517.0011-.1085.0037-.1779.0078-1.7626.1045-4.5106.3786-6.3727.6182-.4505.0578-.517.1445-.6102.3052z" fill="#0f0f0f" fill-rule="evenodd"/><g mask="url(#a)"><path clip-rule="evenodd" d="m9.53947 29.0835c1.23183-1.6531 3.31613-3.027 5.08043-3.3629.5742-.1086 1.3458-.0389 1.6644.3522.5005.5997.3563 1.2583-.1435 1.5213-1.3458.7086-2.9659 1.9205-3.767 3.5751-.6504 1.3509-.7817 2.9796.2111 4.5301 1.6622 2.585 6.2943 2.6558 10.6013-1.4664 1.0661-1.0083 2.021-1.9776 2.9911-3.1259 1.897-2.2347 2.528-3.0492 5.0499-6.6525.0302-.0411.0385-.0963.0252-.123-.0209-.0459-.0561-.0585-.1295-.0633-1.6834.0474-3.1511.5649-4.5774 1.6631-.4106.3082-1.0017.2649-1.2606-.1411-.2876-.4589-.0816-1.0579.3926-1.3949 2.2943-1.6443 4.8015-1.9424 7.3611-2.3877-.0018 0 .1784.0089.3247-.1915 1.0506-1.3894 1.8445-2.6428 2.9641-4.0478 1.1287-1.4257 2.5877-2.7347 3.7016-3.7177.0521-.0463.1021-.0889.1528-.133-.7597-1.3368-1.6651-2.5739-2.6945-3.6896-3.7447-.55117-7.5117-.66673-11.168.7278-3.8914 1.4965-5.5967 4.676-4.7762 6.8003.5828 1.5065 2.5075 1.7517 4.3085.8438 1.4961-.7553 2.8796-1.9717 3.8612-3.5389.5497-.8697 1.7064-.2422 1.0819 1.2683-1.6446 3.9822-4.7864 7.1407-8.6131 7.2733-3.2564.1093-5.358-2.3591-5.3512-5.4039.0123-6.0061 6.504-9.962 13.3243-10.55317 1.4371-.1226 2.8598-.15039 4.2747-.11446-3.1299-2.22502-6.9232-3.53107-11.0138-3.53107-10.7229 0-19.41572 8.9542-19.41572 19.9993 0 4.3819 1.37168 8.4315 3.6915 11.7267 0-.0023-.00072-.0049-.00072-.0071-.23263-2.5273.46095-4.7801 1.84881-6.6354z" fill="#0f0f0f" fill-rule="evenodd"/></g><g clip-rule="evenodd" fill-rule="evenodd"><path d="m30.1547 7.64544c-6.8203.59116-13.312 4.54746-13.3242 10.55326-.0069 3.0451 2.0947 5.5131 5.3512 5.4042 3.8267-.133 6.9688-3.2915 8.613-7.2733.6245-1.5105-.5321-2.1384-1.0819-1.2683-.9812 1.5668-2.3651 2.7832-3.8612 3.5389-1.801.9078-3.7257.6626-4.3085-.8442-.8205-2.1243.8849-5.3038 4.7763-6.7999 3.6562-1.39493 7.4233-1.27899 11.168-.7282-.9255-1.00306-1.9491-1.90796-3.058-2.69655-1.4148-.03593-2.8376-.00852-4.2747.11409z" fill="#fefefe"/><path d="m40.029 14.0505c-1.1139.9834-2.573 2.292-3.7012 3.7181-1.12 1.4049-1.9139 2.6584-2.9645 4.0474-.1464.2008-.3265.1915-.3243.1915-2.56.4456-5.0672.7434-7.3615 2.3876-.4742.3375-.6802.936-.3926 1.395.2589.4063.85.4497 1.2609.1415 1.426-1.0986 2.8937-1.6157 4.5771-1.6635.0734.0048.1086.0174.1295.0637.0133.0263.005.0815-.0252.1226-2.5219 3.6037-3.1529 4.4178-5.0495 6.6525-.9705 1.1482-1.9251 2.1176-2.9915 3.1262-4.3071 4.1222-8.9391 4.0511-10.6013 1.4664-.9928-1.5509-.8615-3.1792-.2111-4.5304.8011-1.6546 2.4212-2.8666 3.7674-3.5748.4994-.2633.6439-.9215.1431-1.5212-.3186-.3915-1.0902-.4608-1.6644-.3523-1.7643.3356-3.8486 1.7094-5.08044 3.3626-1.38786 1.8557-2.08144 4.1081-1.84881 6.6358.00036.0018.00072.0044.00108.0066 2.27991 3.2385 5.47707 5.7454 9.20127 7.114 2.9307-.2244 5.7755-1.4071 9.1283-4.9138 3.4793-3.6403 6.6488-9.0779 9.6169-14.1213.0931-.1608.1596-.2474.6101-.3052 1.8621-.2397 4.6105-.5134 6.3727-.6182.0694-.0037.1262-.0063.1783-.0078-.0474-.8771-.1528-1.7383-.3063-2.5817-.0065.2244-.0025.4474.0226.6645.0252.2145.0144.2874-.2696.3119-1.6288.1341-3.1979.1804-4.9424.2756-.1172.0085-.1539-.0708-.0859-.1538 1.1034-1.9753 2.5071-3.637 4.0967-5.1527-.3283-.8019-.7098-1.5749-1.1326-2.3195-.0507.0441-.1007.0864-.1528.1327z" fill="#fefefe"/><path d="m71.1861 25.9767c0-2.1488-.7371-3.3896-2.9483-3.3896-2.2292 0-2.9483 1.2408-2.9483 3.3896 0 2.1483.7191 3.4077 2.9483 3.4077 2.2112 0 2.9483-1.2594 2.9483-3.4077zm-8.0004-.0556c0-3.5192 1.4203-5.4083 5.0521-5.4083 3.6314 0 5.052 1.8891 5.052 5.4083s-1.4206 5.4079-5.052 5.4079c-3.6318 0-5.0521-1.8887-5.0521-5.4079z" fill="#0f0f0f"/><path d="m74.8406 20.8832 1.6359-.13.2158 1.1857c.4134-.7038 1.6359-1.2598 3.3438-1.2964v2.1668c-2.409.0185-3.0918 1.1853-3.0918 2.9822v5.3338h-2.1037z" fill="#0f0f0f"/><path d="m88.5937 25.884c0-2.4265-.7374-3.3155-3.0382-3.3155-2.1576 0-2.679 1.2965-2.679 3.3155 0 2.0558.5214 3.4633 2.679 3.4633 2.2293 0 3.0382-1.0001 3.0382-3.4633zm-7.8389 0c0-3.0747.9532-5.3527 4.4049-5.3527 2.0138 0 2.9663.4071 3.434 1.1297v-4.9082h2.1034v14.2799l-1.6003.167-.2334-1.1112c-.6112.8149-1.6899 1.222-3.7756 1.222-3.3978 0-4.333-2.3151-4.333-5.4265z" fill="#0f0f0f"/><path d="m98.7381 24.4946c1.9779 0 3.0749-.7778 3.0749-2.9447 0-2.1487-1.061-2.7969-3.1289-2.7969h-4.4228v5.7416zm-5.8611-7.0936h5.8431c3.0929 0 4.4939 1.2783 4.4939 4.093 0 2.8528-1.383 4.3526-4.5123 4.3526h-4.4404v5.2787h-1.3843z" fill="#0f0f0f"/><path d="m111.198 26.5134v-.7408h-.521c-4.315 0-5.376.4819-5.376 2.408 0 1.2224.54 1.9261 2.373 1.9261 2.499 0 3.524-1.1112 3.524-3.5933zm-7.209 1.7598c0-2.908 1.582-3.7785 6.616-3.7785h.593c-.036-1.7409-.396-2.5187-2.679-2.5187-1.258 0-2.337.463-2.966.8886l-.719-1.0927c.647-.463 2.139-1.1113 3.793-1.1113 3.344 0 3.883 1.2039 3.883 4.1308v3.8522c0 1.0927.073 1.2409 1.025 1.2409v1.2223c-.089.0371-.269.0371-.539.0371-1.15 0-1.456-.3704-1.618-1.2779-.611.963-1.672 1.4445-3.902 1.4445-2.786 0-3.487-1.3149-3.487-3.0373z" fill="#0f0f0f"/><path d="m114.696 30.1622.719-1.0927c1.169.7778 2.446 1.0189 3.488 1.0189 1.798 0 2.625-.3518 2.625-1.7968 0-1.1482-.719-1.3705-2.625-1.7594-2.301-.463-3.739-.8705-3.739-3.0748 0-1.7594 1.007-2.7965 3.739-2.7965 1.493 0 2.715.3334 3.632.889l-.647 1.1486c-.755-.4263-1.762-.7412-2.967-.7412-1.869 0-2.409.5741-2.409 1.5001 0 1.1298.719 1.4076 2.463 1.7595 2.41.5004 3.865.8334 3.865 3.0192 0 2.3339-1.258 3.0747-4.009 3.0747-1.312 0-2.786-.2411-4.135-1.1486z" fill="#0f0f0f"/><path d="m123.778 30.1622.719-1.0927c1.169.7778 2.445 1.0189 3.488 1.0189 1.798 0 2.625-.3518 2.625-1.7968 0-1.1482-.719-1.3705-2.625-1.7594-2.301-.463-3.74-.8705-3.74-3.0748 0-1.7594 1.008-2.7965 3.74-2.7965 1.492 0 2.715.3334 3.632.889l-.648 1.1486c-.755-.4263-1.761-.7412-2.966-.7412-1.87 0-2.409.5741-2.409 1.5001 0 1.1298.719 1.4076 2.463 1.7595 2.409.5004 3.865.8334 3.865 3.0192 0 2.3339-1.258 3.0747-4.009 3.0747-1.312 0-2.787-.2411-4.135-1.1486z" fill="#0f0f0f"/></g><path d="m137.564 17.4736h5.854c1.559 0 2.698.3194 3.419.958.721.6387 1.081 1.6465 1.081 3.0235 0 1.3945-.36 2.4492-1.081 3.164-.721.709-1.866 1.0635-3.437 1.0635h-4.447v5.1328h-1.389zm5.872 6.8994c.996 0 1.757-.2138 2.285-.6416.527-.4277.791-1.1689.791-2.2236 0-.5156-.068-.9492-.202-1.3008-.129-.3574-.326-.6357-.589-.8349-.264-.2051-.592-.3516-.985-.4395-.386-.0937-.838-.1406-1.353-.1406h-4.43v5.581zm6.644-3.4189 1.081-.0703.141 1.3271c.193-.3808.583-.7148 1.169-1.0019.586-.293 1.341-.4453 2.267-.457v1.371c-.609 0-1.122.0821-1.538.2461-.416.1582-.756.3897-1.019.6944-.264.2988-.454.6533-.572 1.0635-.111.4042-.167.8466-.167 1.3271v5.3613h-1.362zm10.767 10.0635c-1.717 0-2.945-.4336-3.683-1.3008-.738-.873-1.107-2.168-1.107-3.8848 0-.8554.088-1.6054.263-2.25.176-.6504.454-1.1894.835-1.6172.387-.4336.882-.7617 1.486-.9843.609-.2227 1.344-.334 2.206-.334 1.716 0 2.947.4394 3.691 1.3183.744.8731 1.116 2.1622 1.116 3.8672 0 1.7168-.372 3.0118-1.116 3.8848-.744.8672-1.975 1.3008-3.691 1.3008zm0-1.2481c1.248 0 2.13-.331 2.645-.9931.516-.668.774-1.6377.774-2.9092s-.258-2.2442-.774-2.918c-.515-.6738-1.397-1.0107-2.645-1.0107s-2.13.3369-2.646 1.0107c-.515.6738-.773 1.6465-.773 2.918s.258 2.2412.773 2.9092c.516.6621 1.398.9931 2.646.9931z" fill="#000"/><path clip-rule="evenodd" d="m53.1024 17.4009h9.1329v2.1487h-6.9577v3.6855h6.7779v2.1302h-6.7779v5.7602h-2.1752z" fill="#0f0f0f" fill-rule="evenodd"/></svg>

<svg width="178" height="49" viewBox="0 0 178 49" fill="none" xmlns="http://www.w3.org/2000/svg">
<path fill-rule="evenodd" clip-rule="evenodd" d="M37.2177 21.39C37.1497 21.473 37.1864 21.5523 37.3036 21.5441C39.0482 21.4485 40.6172 21.4022 42.246 21.2682C42.5301 21.2437 42.5408 21.1707 42.5157 20.9563C42.4905 20.7392 42.4865 20.5162 42.493 20.2918C42.2363 18.8831 41.8412 17.5252 41.3144 16.2373C39.7248 17.753 38.3212 19.4146 37.2177 21.39Z" fill="#0F0F0F"/>
<path fill-rule="evenodd" clip-rule="evenodd" d="M35.6382 23.8047C32.6701 28.8478 29.5003 34.2857 26.021 37.9261C22.6685 41.4327 19.8238 42.615 16.8927 42.8399C18.9321 43.5888 21.1268 44 23.4157 44C34.1385 44 42.8314 35.0451 42.8314 23.9996C42.8314 23.6214 42.8192 23.2465 42.799 22.8735C42.7473 22.8746 42.6905 22.8772 42.6211 22.8813C40.8585 22.9858 38.1105 23.2599 36.2484 23.4995C35.7979 23.5573 35.7314 23.644 35.6382 23.8047Z" fill="#0F0F0F"/>
<mask id="mask0" mask-type="alpha" maskUnits="userSpaceOnUse" x="4" y="4" width="37" height="34">
<path d="M4 37.5088V4H40.1818V37.5088H4Z" fill="white"/>
</mask>
<g mask="url(#mask0)">
<path fill-rule="evenodd" clip-rule="evenodd" d="M9.53947 29.0835C10.7713 27.4304 12.8556 26.0565 14.6199 25.7206C15.1941 25.612 15.9657 25.6817 16.2843 26.0728C16.7848 26.6725 16.6406 27.3311 16.1408 27.5941C14.795 28.3027 13.1749 29.5146 12.3738 31.1692C11.7234 32.5201 11.5921 34.1488 12.5849 35.6993C14.2471 38.2843 18.8792 38.3551 23.1862 34.2329C24.2523 33.2246 25.2072 32.2553 26.1773 31.107C28.0743 28.8723 28.7053 28.0578 31.2272 24.4545C31.2574 24.4134 31.2657 24.3582 31.2524 24.3315C31.2315 24.2856 31.1963 24.273 31.1229 24.2682C29.4395 24.3156 27.9718 24.8331 26.5455 25.9313C26.1349 26.2395 25.5438 26.1962 25.2849 25.7902C24.9973 25.3313 25.2033 24.7323 25.6775 24.3953C27.9718 22.751 30.479 22.4529 33.0386 22.0076C33.0368 22.0076 33.217 22.0165 33.3633 21.8161C34.4139 20.4267 35.2078 19.1733 36.3274 17.7683C37.4561 16.3426 38.9151 15.0336 40.029 14.0506C40.0811 14.0043 40.1311 13.9617 40.1818 13.9176C39.4221 12.5808 38.5167 11.3437 37.4873 10.228C33.7426 9.67683 29.9756 9.56127 26.3193 10.9558C22.4279 12.4523 20.7226 15.6318 21.5431 17.7561C22.1259 19.2626 24.0506 19.5078 25.8516 18.5999C27.3477 17.8446 28.7312 16.6282 29.7128 15.061C30.2625 14.1913 31.4192 14.8188 30.7947 16.3293C29.1501 20.3115 26.0083 23.47 22.1816 23.6026C18.9252 23.7119 16.8236 21.2435 16.8304 18.1987C16.8427 12.1926 23.3344 8.2367 30.1547 7.64553C31.5918 7.52293 33.0145 7.49514 34.4294 7.53107C31.2995 5.30605 27.5062 4 23.4156 4C12.6927 4 3.99988 12.9542 3.99988 23.9993C3.99988 28.3812 5.37156 32.4308 7.69138 35.726C7.69138 35.7237 7.69066 35.7211 7.69066 35.7189C7.45803 33.1916 8.15161 30.9388 9.53947 29.0835Z" fill="#0F0F0F"/>
</g>
<path fill-rule="evenodd" clip-rule="evenodd" d="M30.1547 7.64544C23.3344 8.2366 16.8427 12.1929 16.8305 18.1987C16.8236 21.2438 18.9252 23.7118 22.1817 23.6029C26.0084 23.4699 29.1505 20.3114 30.7947 16.3296C31.4192 14.8191 30.2626 14.1912 29.7128 15.0613C28.7316 16.6281 27.3477 17.8445 25.8516 18.6002C24.0506 19.508 22.1259 19.2628 21.5431 17.756C20.7226 15.6317 22.428 12.4522 26.3194 10.9561C29.9756 9.56117 33.7427 9.67711 37.4874 10.2279C36.5619 9.22484 35.5383 8.31994 34.4294 7.53135C33.0146 7.49542 31.5918 7.52283 30.1547 7.64544Z" fill="#FEFEFE"/>
<path fill-rule="evenodd" clip-rule="evenodd" d="M40.029 14.0505C38.9151 15.0339 37.456 16.3425 36.3278 17.7686C35.2078 19.1735 34.4139 20.427 33.3633 21.816C33.2169 22.0168 33.0368 22.0075 33.039 22.0075C30.479 22.4531 27.9718 22.7509 25.6775 24.3951C25.2033 24.7326 24.9973 25.3311 25.2849 25.7901C25.5438 26.1964 26.1349 26.2398 26.5458 25.9316C27.9718 24.833 29.4395 24.3159 31.1229 24.2681C31.1963 24.2729 31.2315 24.2855 31.2524 24.3318C31.2657 24.3581 31.2574 24.4133 31.2272 24.4544C28.7053 28.0581 28.0743 28.8722 26.1777 31.1069C25.2072 32.2551 24.2526 33.2245 23.1862 34.2331C18.8791 38.3553 14.2471 38.2842 12.5849 35.6995C11.5921 34.1486 11.7234 32.5203 12.3738 31.1691C13.1749 29.5145 14.795 28.3025 16.1412 27.5943C16.6406 27.331 16.7851 26.6728 16.2843 26.0731C15.9657 25.6816 15.1941 25.6123 14.6199 25.7208C12.8556 26.0564 10.7713 27.4302 9.53946 29.0834C8.1516 30.9391 7.45802 33.1915 7.69065 35.7192C7.69101 35.721 7.69137 35.7236 7.69173 35.7258C9.97164 38.9643 13.1688 41.4712 16.893 42.8398C19.8237 42.6154 22.6685 41.4327 26.0213 37.926C29.5006 34.2857 32.6701 28.8481 35.6382 23.8047C35.7313 23.6439 35.7978 23.5573 36.2483 23.4995C38.1104 23.2598 40.8588 22.9861 42.621 22.8813C42.6904 22.8776 42.7472 22.875 42.7993 22.8735C42.7519 21.9964 42.6465 21.1352 42.493 20.2918C42.4865 20.5162 42.4905 20.7392 42.5156 20.9563C42.5408 21.1708 42.53 21.2437 42.246 21.2682C40.6172 21.4023 39.0481 21.4486 37.3036 21.5438C37.1864 21.5523 37.1497 21.473 37.2177 21.39C38.3211 19.4147 39.7248 17.753 41.3144 16.2373C40.9861 15.4354 40.6046 14.6624 40.1818 13.9178C40.1311 13.9619 40.0811 14.0042 40.029 14.0505Z" fill="#FEFEFE"/>
<path fill-rule="evenodd" clip-rule="evenodd" d="M71.1861 25.9767C71.1861 23.8279 70.449 22.5871 68.2378 22.5871C66.0086 22.5871 65.2895 23.8279 65.2895 25.9767C65.2895 28.125 66.0086 29.3844 68.2378 29.3844C70.449 29.3844 71.1861 28.125 71.1861 25.9767ZM63.1857 25.9211C63.1857 22.4019 64.606 20.5128 68.2378 20.5128C71.8692 20.5128 73.2898 22.4019 73.2898 25.9211C73.2898 29.4403 71.8692 31.329 68.2378 31.329C64.606 31.329 63.1857 29.4403 63.1857 25.9211Z" fill="#0F0F0F"/>
<path fill-rule="evenodd" clip-rule="evenodd" d="M74.8406 20.8832L76.4765 20.7532L76.6923 21.9389C77.1057 21.2351 78.3282 20.6791 80.0361 20.6425V22.8093C77.6271 22.8278 76.9443 23.9946 76.9443 25.7915V31.1253H74.8406V20.8832Z" fill="#0F0F0F"/>
<path fill-rule="evenodd" clip-rule="evenodd" d="M88.5937 25.884C88.5937 23.4575 87.8563 22.5685 85.5555 22.5685C83.3979 22.5685 82.8765 23.865 82.8765 25.884C82.8765 27.9398 83.3979 29.3473 85.5555 29.3473C87.7848 29.3473 88.5937 28.3472 88.5937 25.884ZM80.7548 25.884C80.7548 22.8093 81.708 20.5313 85.1597 20.5313C87.1735 20.5313 88.126 20.9384 88.5937 21.661V16.7528H90.6971V31.0327L89.0968 31.1997L88.8634 30.0885C88.2522 30.9034 87.1735 31.3105 85.0878 31.3105C81.69 31.3105 80.7548 28.9954 80.7548 25.884Z" fill="#0F0F0F"/>
<path fill-rule="evenodd" clip-rule="evenodd" d="M98.7381 24.4946C100.716 24.4946 101.813 23.7168 101.813 21.5499C101.813 19.4012 100.752 18.753 98.6841 18.753H94.2613V24.4946H98.7381ZM92.877 17.401H98.7201C101.813 17.401 103.214 18.6793 103.214 21.494C103.214 24.3468 101.831 25.8466 98.7017 25.8466H94.2613V31.1253H92.877V17.401Z" fill="#0F0F0F"/>
<path fill-rule="evenodd" clip-rule="evenodd" d="M111.198 26.5134V25.7726H110.677C106.362 25.7726 105.301 26.2545 105.301 28.1806C105.301 29.403 105.841 30.1067 107.674 30.1067C110.173 30.1067 111.198 28.9955 111.198 26.5134ZM103.989 28.2732C103.989 25.3652 105.571 24.4947 110.605 24.4947H111.198C111.162 22.7538 110.802 21.976 108.519 21.976C107.261 21.976 106.182 22.439 105.553 22.8646L104.834 21.7719C105.481 21.3089 106.973 20.6606 108.627 20.6606C111.971 20.6606 112.51 21.8645 112.51 24.7914V28.6436C112.51 29.7363 112.583 29.8845 113.535 29.8845V31.1068C113.446 31.1439 113.266 31.1439 112.996 31.1439C111.846 31.1439 111.54 30.7735 111.378 29.866C110.767 30.829 109.706 31.3105 107.476 31.3105C104.69 31.3105 103.989 29.9956 103.989 28.2732Z" fill="#0F0F0F"/>
<path fill-rule="evenodd" clip-rule="evenodd" d="M114.696 30.1622L115.415 29.0695C116.584 29.8473 117.861 30.0884 118.903 30.0884C120.701 30.0884 121.528 29.7366 121.528 28.2916C121.528 27.1434 120.809 26.9211 118.903 26.5322C116.602 26.0692 115.164 25.6617 115.164 23.4574C115.164 21.698 116.171 20.6609 118.903 20.6609C120.396 20.6609 121.618 20.9943 122.535 21.5499L121.888 22.6985C121.133 22.2722 120.126 21.9573 118.921 21.9573C117.052 21.9573 116.512 22.5314 116.512 23.4574C116.512 24.5872 117.231 24.865 118.975 25.2169C121.385 25.7173 122.84 26.0503 122.84 28.2361C122.84 30.57 121.582 31.3108 118.831 31.3108C117.519 31.3108 116.045 31.0697 114.696 30.1622Z" fill="#0F0F0F"/>
<path fill-rule="evenodd" clip-rule="evenodd" d="M123.778 30.1622L124.497 29.0695C125.666 29.8473 126.942 30.0884 127.985 30.0884C129.783 30.0884 130.61 29.7366 130.61 28.2916C130.61 27.1434 129.891 26.9211 127.985 26.5322C125.684 26.0692 124.245 25.6617 124.245 23.4574C124.245 21.698 125.253 20.6609 127.985 20.6609C129.477 20.6609 130.7 20.9943 131.617 21.5499L130.969 22.6985C130.214 22.2722 129.208 21.9573 128.003 21.9573C126.133 21.9573 125.594 22.5314 125.594 23.4574C125.594 24.5872 126.313 24.865 128.057 25.2169C130.466 25.7173 131.922 26.0503 131.922 28.2361C131.922 30.57 130.664 31.3108 127.913 31.3108C126.601 31.3108 125.126 31.0697 123.778 30.1622Z" fill="#0F0F0F"/>
<path d="M137.564 17.4736H143.418C144.977 17.4736 146.116 17.793 146.837 18.4316C147.558 19.0703 147.918 20.0781 147.918 21.4551C147.918 22.8496 147.558 23.9043 146.837 24.6191C146.116 25.3281 144.971 25.6826 143.4 25.6826H138.953V30.8154H137.564V17.4736ZM143.436 24.373C144.432 24.373 145.193 24.1592 145.721 23.7314C146.248 23.3037 146.512 22.5625 146.512 21.5078C146.512 20.9922 146.444 20.5586 146.31 20.207C146.181 19.8496 145.984 19.5713 145.721 19.3721C145.457 19.167 145.129 19.0205 144.736 18.9326C144.35 18.8389 143.898 18.792 143.383 18.792H138.953V24.373H143.436ZM150.08 20.9541L151.161 20.8838L151.302 22.2109C151.495 21.8301 151.885 21.4961 152.471 21.209C153.057 20.916 153.812 20.7637 154.738 20.752V22.123C154.129 22.123 153.616 22.2051 153.2 22.3691C152.784 22.5273 152.444 22.7588 152.181 23.0635C151.917 23.3623 151.727 23.7168 151.609 24.127C151.498 24.5312 151.442 24.9736 151.442 25.4541V30.8154H150.08V20.9541ZM160.847 31.0176C159.13 31.0176 157.902 30.584 157.164 29.7168C156.426 28.8438 156.057 27.5488 156.057 25.832C156.057 24.9766 156.145 24.2266 156.32 23.582C156.496 22.9316 156.774 22.3926 157.155 21.9648C157.542 21.5312 158.037 21.2031 158.641 20.9805C159.25 20.7578 159.985 20.6465 160.847 20.6465C162.563 20.6465 163.794 21.0859 164.538 21.9648C165.282 22.8379 165.654 24.127 165.654 25.832C165.654 27.5488 165.282 28.8438 164.538 29.7168C163.794 30.584 162.563 31.0176 160.847 31.0176ZM160.847 29.7695C162.095 29.7695 162.977 29.4385 163.492 28.7764C164.008 28.1084 164.266 27.1387 164.266 25.8672C164.266 24.5957 164.008 23.623 163.492 22.9492C162.977 22.2754 162.095 21.9385 160.847 21.9385C159.599 21.9385 158.717 22.2754 158.201 22.9492C157.686 23.623 157.428 24.5957 157.428 25.8672C157.428 27.1387 157.686 28.1084 158.201 28.7764C158.717 29.4385 159.599 29.7695 160.847 29.7695Z" fill="black"/>
<path fill-rule="evenodd" clip-rule="evenodd" d="M53.1024 17.4009H62.2353V19.5496H55.2776V23.2351H62.0555V25.3653H55.2776V31.1255H53.1024V17.4009Z" fill="#0F0F0F"/>
</svg>
